X:5891
T:Gan Ainm
R:Reel
S:(Unknown fiddle)
H:
N:
D:Taped @ Milltown
Z:Adrian Scahill
M:4/4
L:1/8
K:A
EFGA BAGA|BABc dcde|fdd2 cdef|dfec dBAF|\
EFGA BAGA|BABc dcde|fdd2 edef|dBAF E4:||\
BABc dcde|fdfg a2fa|bff2 afec|dfec d2cd|\
BABc dcde|fdfg a2fa|bff2 afec|dfec B4:||
